src/22/mimetypes/text-x-csrc.svg

<svg xmlns="http://www.w3.org/2000/svg" width="22" height="22"><path d="M7 3v1h9V3H7zm9 1v1h1V4h-1zm1 1v1h1V5h-1zm1 1v1h1V6h-1zM7 4H6v1h1V4zM6 5H5v1h1V5zM5 6H4v1h1V6zM4 7H3v8h1V7zm0 8v1h1v-1H4zm1 1v1h1v-1H5zm1 1v1h1v-1H6zm1 1v1h9v-1H7zm9 0h1v-1h-1v1zm1-1h1v-1h-1v1zm1-1h1v-1h-1v1z" fill="#13a4f7" stroke-width="2"/></svg>

<?xml version="1.0" encoding="UTF-8" standalone="no"?>
<!-- Created with Inkscape (http://www.inkscape.org/) -->

<svg
   xmlns:dc="http://purl.org/dc/elements/1.1/"
   xmlns:cc="http://creativecommons.org/ns#"
   xmlns:rdf="http://www.w3.org/1999/02/22-rdf-syntax-ns#"
   xmlns:svg="http://www.w3.org/2000/svg"
   xmlns="http://www.w3.org/2000/svg"
   xmlns:sodipodi="http://sodipodi.sourceforge.net/DTD/sodipodi-0.dtd"
   xmlns:inkscape="http://www.inkscape.org/namespaces/inkscape"
   width="22"
   version="1.1"
   height="22"
   id="svg2"
   inkscape:version="0.91 r13725"
   sodipodi:docname="text-x-csrc.svg">
  <sodipodi:namedview
     pagecolor="#ffffff"
     bordercolor="#666666"
     borderopacity="1"
     objecttolerance="10"
     gridtolerance="10"
     guidetolerance="10"
     inkscape:pageopacity="0"
     inkscape:pageshadow="2"
     inkscape:window-width="709"
     inkscape:window-height="480"
     id="namedview20"
     showgrid="false"
     inkscape:zoom="10.727273"
     inkscape:cx="11"
     inkscape:cy="11"
     inkscape:window-x="0"
     inkscape:window-y="0"
     inkscape:window-maximized="0"
     inkscape:current-layer="layer1" />
  <defs
     id="defs3871" />
  <metadata
     id="metadata3874">
    <rdf:RDF>
      <cc:Work
         rdf:about="">
        <dc:format>image/svg+xml</dc:format>
        <dc:type
           rdf:resource="http://purl.org/dc/dcmitype/StillImage" />
      </cc:Work>
    </rdf:RDF>
  </metadata>
  <g
     inkscape:label="Capa 1"
     inkscape:groupmode="layer"
     id="layer1"
     transform="matrix(1 0 0 1 -326 -534.3622)">
    <rect
       width="0"
       x="256.22556"
       y="514.69751"
       height="14.668059"
       style="fill:#13a4f7;fill-opacity:1"
       id="rect4035" />
    <rect
       width="0"
       x="263.18613"
       y="537.26813"
       height="14.668059"
       style="fill:#13a4f7;fill-opacity:1"
       id="rect4035-8" />
    <rect
       width="0"
       x="264.99942"
       y="536.2074"
       height="14.668059"
       style="fill:#13a4f7;fill-opacity:1"
       id="rect4035-0" />
    <rect
       width="0"
       x="256.22556"
       y="514.69751"
       height="14.668059"
       style="fill:#13a4f7;fill-opacity:1"
       id="rect4035-3" />
    <rect
       width="0"
       x="263.18613"
       y="537.26813"
       height="14.668059"
       style="fill:#13a4f7;fill-opacity:1"
       id="rect4035-8-9" />
    <rect
       width="0"
       x="264.99942"
       y="536.2074"
       height="14.668059"
       style="fill:#13a4f7;fill-opacity:1"
       id="rect4035-0-4" />
    <rect
       width="0"
       x="256.22556"
       y="514.69751"
       height="14.668059"
       style="fill:#13a4f7;fill-opacity:1"
       id="rect4035-2" />
    <rect
       width="0"
       x="263.18613"
       y="537.26813"
       height="14.668059"
       style="fill:#13a4f7;fill-opacity:1"
       id="rect4035-8-99" />
    <rect
       width="0"
       x="264.99942"
       y="536.2074"
       height="14.668059"
       style="fill:#13a4f7;fill-opacity:1"
       id="rect4035-0-43" />
    <rect
       width="0"
       x="256.22556"
       y="514.69751"
       height="14.668059"
       style="fill:#13a4f7;fill-opacity:1"
       id="rect4035-3-9" />
    <rect
       width="0"
       x="263.18613"
       y="537.26813"
       height="14.668059"
       style="fill:#13a4f7;fill-opacity:1"
       id="rect4035-8-9-9" />
    <rect
       width="0"
       x="264.99942"
       y="536.2074"
       height="14.668059"
       style="fill:#13a4f7;fill-opacity:1"
       id="rect4035-0-4-4" />
    <path
       style="fill:#13a4f7;stroke-width:2;fill-opacity:1"
       id="rect4503"
       d="M 7 3 L 7 4 L 16 4 L 16 3 L 7 3 z M 16 4 L 16 5 L 17 5 L 17 4 L 16 4 z M 17 5 L 17 6 L 18 6 L 18 5 L 17 5 z M 18 6 L 18 7 L 19 7 L 19 6 L 18 6 z M 7 4 L 6 4 L 6 5 L 7 5 L 7 4 z M 6 5 L 5 5 L 5 6 L 6 6 L 6 5 z M 5 6 L 4 6 L 4 7 L 5 7 L 5 6 z M 4 7 L 3 7 L 3 15 L 4 15 L 4 7 z M 4 15 L 4 16 L 5 16 L 5 15 L 4 15 z M 5 16 L 5 17 L 6 17 L 6 16 L 5 16 z M 6 17 L 6 18 L 7 18 L 7 17 L 6 17 z M 7 18 L 7 19 L 16 19 L 16 18 L 7 18 z M 16 18 L 17 18 L 17 17 L 16 17 L 16 18 z M 17 17 L 18 17 L 18 16 L 17 16 L 17 17 z M 18 16 L 19 16 L 19 15 L 18 15 L 18 16 z "
       transform="matrix(1 0 0 1 326 534.3622)" />
  </g>
</svg>
